img/flying/img-7.svg

<svg width="63" height="67" viewBox="0 0 63 67" fill="none" xmlns="http://www.w3.org/2000/svg">
<path d="M53.798 28.7947C56.7188 30.5581 56.8645 34.5391 54.1134 37.6919L33.7895 61.0274C31.0551 64.1705 26.4756 65.2884 23.5547 63.525C20.6339 61.7615 20.5054 57.7723 23.2393 54.6278L43.563 31.2924C46.2974 28.1493 50.8942 27.0231 53.798 28.7947Z" fill="white"/>
<path d="M2.3228 1.19869C4.51967 -0.133555 7.36015 0.506966 8.66773 2.6359L18.3587 18.3716C19.665 20.4894 18.9443 23.2833 16.7474 24.6155C14.5505 25.9478 11.7099 25.296 10.4024 23.1783L0.711498 7.44267C-0.594786 5.3249 0.125776 2.51974 2.3228 1.19869Z" fill="#FEE927"/>
</svg>

<svg width="63" height="67" fill="none" xmlns="http://www.w3.org/2000/svg"><path d="M53.798 28.795c2.92 1.763 3.066 5.744.315 8.897L33.79 61.027c-2.734 3.144-7.313 4.261-10.234 2.498-2.921-1.764-3.05-5.753-.316-8.897l20.324-23.336c2.734-3.143 7.331-4.269 10.235-2.497z" fill="#fff"/><path d="M2.323 1.199C4.52-.134 7.36.507 8.668 2.636l9.69 15.736c1.307 2.117.586 4.911-1.61 6.244-2.198 1.332-5.038.68-6.346-1.438L.712 7.443C-.596 5.325.125 2.52 2.321 1.199z" fill="#FEE927"/></svg>
